packages/ui/public/icons/media-recorder.svg

<svg width="24" height="24" viewBox="0 0 24 24" fill="none" xmlns="http://www.w3.org/2000/svg">
  <path opacity="0.4" d="M22 8.9313C22 8.32548 22 8.02257 21.8802 7.88231C21.7763 7.76061 21.6203 7.69602 21.4608 7.70858C21.2769 7.72305 21.0627 7.93724 20.6343 8.36561L17 11.9999L20.6343 15.6342C21.0627 16.0626 21.2769 16.2768 21.4608 16.2913C21.6203 16.3038 21.7763 16.2392 21.8802 16.1175C22 15.9773 22 15.6744 22 15.0686V8.9313Z" stroke="#BF7AF0" stroke-width="1.5" stroke-linecap="round" stroke-linejoin="round" />
  <path d="M2 9.8C2 8.11984 2 7.27976 2.32698 6.63803C2.6146 6.07354 3.07354 5.6146 3.63803 5.32698C4.27976 5 5.11984 5 6.8 5H12.2C13.8802 5 14.7202 5 15.362 5.32698C15.9265 5.6146 16.3854 6.07354 16.673 6.63803C17 7.27976 17 8.11984 17 9.8V14.2C17 15.8802 17 16.7202 16.673 17.362C16.3854 17.9265 15.9265 18.3854 15.362 18.673C14.7202 19 13.8802 19 12.2 19H6.8C5.11984 19 4.27976 19 3.63803 18.673C3.07354 18.3854 2.6146 17.9265 2.32698 17.362C2 16.7202 2 15.8802 2 14.2V9.8Z" fill="none" stroke="#BF7AF0" stroke-width="1.5" stroke-linecap="round" stroke-linejoin="round" />
</svg>

<svg width="24" height="24" fill="none" xmlns="http://www.w3.org/2000/svg"><path opacity=".4" d="M22 8.931c0-.606 0-.908-.12-1.049a.5.5 0 0 0-.42-.173c-.183.014-.397.228-.826.657L17 12l3.634 3.634c.429.429.643.643.827.657a.5.5 0 0 0 .42-.174c.119-.14.119-.443.119-1.048V8.93Z" stroke="#BF7AF0" stroke-width="1.5" stroke-linecap="round" stroke-linejoin="round"/><path d="M2 9.8c0-1.68 0-2.52.327-3.162a3 3 0 0 1 1.311-1.311C4.28 5 5.12 5 6.8 5h5.4c1.68 0 2.52 0 3.162.327a3 3 0 0 1 1.311 1.311C17 7.28 17 8.12 17 9.8v4.4c0 1.68 0 2.52-.327 3.162a3 3 0 0 1-1.311 1.311C14.72 19 13.88 19 12.2 19H6.8c-1.68 0-2.52 0-3.162-.327a3 3 0 0 1-1.311-1.311C2 16.72 2 15.88 2 14.2V9.8Z" stroke="#BF7AF0" stroke-width="1.5" stroke-linecap="round" stroke-linejoin="round"/></svg>
